app/images/src/svg/insta.svg

<svg width="15" height="15" viewBox="0 0 15 15" fill="none" xmlns="http://www.w3.org/2000/svg">
<path fill-rule="evenodd" clip-rule="evenodd" d="M13.4811 10.5378C13.4811 12.1518 12.152 13.4818 10.538 13.4818H4.46208C2.84816 13.4818 1.51904 12.1518 1.51904 10.5378V4.46285C1.51904 2.84797 2.84816 1.51886 4.46208 1.51886H10.538C12.152 1.51886 13.4811 2.84797 13.4811 4.46285V10.5378ZM10.538 0H4.46203C1.99367 0 0 1.99367 0 4.46298V10.538C0 13.0073 1.99367 15 4.46203 15H10.538C13.0063 15 15 13.0073 15 10.538V4.46298C15 1.99367 13.0063 0 10.538 0ZM7.49939 9.77857C6.26522 9.77857 5.12598 8.73427 5.12598 7.40516C5.12598 6.07699 6.17028 5.03174 7.49939 5.03174C8.82851 5.03174 9.87281 6.07699 9.87281 7.40516C9.87281 8.73427 8.82851 9.77857 7.49939 9.77857ZM7.49958 3.60809C5.41097 3.60809 3.60718 5.31695 3.60718 7.50145C3.60718 9.5891 5.31604 11.3929 7.49958 11.3929C9.58819 11.3929 11.392 9.68404 11.392 7.50145C11.392 5.31695 9.68313 3.60809 7.49958 3.60809ZM12.3423 3.60806C12.3423 3.08401 11.917 2.65869 11.393 2.65869C10.8689 2.65869 10.4436 3.08401 10.4436 3.60806C10.4436 4.13306 10.8689 4.55743 11.393 4.55743C11.917 4.55743 12.3423 4.13306 12.3423 3.60806Z" fill="white"/>
</svg>

<svg width="15" height="15" fill="none" xmlns="http://www.w3.org/2000/svg"><path fill-rule="evenodd" clip-rule="evenodd" d="M13.481 10.538a2.959 2.959 0 0 1-2.943 2.944H4.462a2.959 2.959 0 0 1-2.943-2.944V4.463a2.958 2.958 0 0 1 2.943-2.944h6.076a2.958 2.958 0 0 1 2.943 2.944v6.075ZM10.538 0H4.462A4.457 4.457 0 0 0 0 4.463v6.075A4.456 4.456 0 0 0 4.462 15h6.076A4.456 4.456 0 0 0 15 10.538V4.463A4.457 4.457 0 0 0 10.538 0ZM7.499 9.779c-1.234 0-2.373-1.045-2.373-2.374a2.35 2.35 0 0 1 2.373-2.373 2.35 2.35 0 0 1 2.374 2.373A2.35 2.35 0 0 1 7.499 9.78Zm0-6.17c-2.088 0-3.892 1.708-3.892 3.892 0 2.088 1.709 3.892 3.893 3.892 2.088 0 3.892-1.709 3.892-3.892 0-2.184-1.709-3.893-3.892-3.893Zm4.843 0a.95.95 0 1 0-1.9 0 .95.95 0 0 0 1.9 0Z" fill="#fff"/></svg>
